Sources/FrostedUI/Resources/Icons.xcassets/storefrontItem20.imageset/storefront-item-20.svg

<svg width="20" height="20" viewBox="0 0 20 20" fill="none" xmlns="http://www.w3.org/2000/svg" data-fui-icon="true">
  <path
    d="M13.5 6.50781C13.9245 6.50781 14.3404 6.62868 14.6992 6.85547L18.5801 9.30859C19.1525 9.67055 19.4999 10.3003 19.5 10.9775V15.3105C19.4999 15.9879 19.1527 16.6185 18.5801 16.9805L14.6992 19.4336C14.3405 19.6603 13.9244 19.7803 13.5 19.7803C13.0756 19.7803 12.6595 19.6603 12.3008 19.4336L8.41992 16.9805C7.84734 16.6185 7.50014 15.9879 7.5 15.3105V10.9775C7.50014 10.3003 7.84751 9.67055 8.41992 9.30859L12.3008 6.85547C12.6596 6.62868 13.0755 6.50781 13.5 6.50781ZM13.5 8.00781C13.3593 8.00781 13.2215 8.04785 13.1025 8.12305L9.22168 10.5762C9.08405 10.6632 9.00014 10.8147 9 10.9775V15.3105C9.00014 15.4734 9.08398 15.6249 9.22168 15.7119L13.1025 18.165C13.2215 18.2402 13.3593 18.2803 13.5 18.2803C13.6407 18.2803 13.7785 18.2402 13.8975 18.165L17.7783 15.7119C17.916 15.6249 17.9999 15.4734 18 15.3105V10.9775C17.9999 10.8147 17.916 10.6632 17.7783 10.5762L13.8975 8.12305C13.7785 8.04785 13.6407 8.00781 13.5 8.00781ZM9.7832 10.9971C9.98035 10.6328 10.4355 10.4972 10.7998 10.6943L13.498 12.1543L16.1973 10.6943C16.5615 10.4973 17.0168 10.6329 17.2139 10.9971C17.4105 11.3612 17.2752 11.8166 16.9111 12.0137L14.2461 13.4551V16.623C14.246 17.0371 13.9102 17.373 13.4961 17.373C13.082 17.373 12.7462 17.0371 12.7461 16.623V13.4531L10.085 12.0137C9.72093 11.8165 9.58631 11.3612 9.7832 10.9971ZM16.25 1C18.0449 1 19.5 2.45507 19.5 4.25V7C19.5 7.41421 19.1642 7.75 18.75 7.75C18.3358 7.75 18 7.41421 18 7V4.25C18 3.2835 17.2165 2.5 16.25 2.5H3.75C2.7835 2.5 2 3.2835 2 4.25V13.2812C2 14.2477 2.7835 15.0312 3.75 15.0312H5.5C5.91421 15.0312 6.25 15.367 6.25 15.7812C6.25 16.1955 5.91421 16.5312 5.5 16.5312H3.75C1.95507 16.5312 0.5 15.0762 0.5 13.2812V4.25C0.5 2.45507 1.95507 1 3.75 1H16.25ZM4.375 3.75C4.92728 3.75 5.375 4.19772 5.375 4.75C5.375 5.30228 4.92728 5.75 4.375 5.75C3.82272 5.75 3.375 5.30228 3.375 4.75C3.375 4.19772 3.82272 3.75 4.375 3.75ZM7.5 3.75C8.05228 3.75 8.5 4.19772 8.5 4.75C8.5 5.30228 8.05228 5.75 7.5 5.75C6.94772 5.75 6.5 5.30228 6.5 4.75C6.5 4.19772 6.94772 3.75 7.5 3.75ZM10.625 3.75C11.1773 3.75 11.625 4.19772 11.625 4.75C11.625 5.30228 11.1773 5.75 10.625 5.75C10.0727 5.75 9.625 5.30228 9.625 4.75C9.625 4.19772 10.0727 3.75 10.625 3.75Z"
    fill="currentColor"
  />
</svg>

<svg xmlns="http://www.w3.org/2000/svg" width="20" height="20" fill="none" data-fui-icon="true" viewBox="0 0 20 20"><path fill="currentColor" d="M13.5 6.508c.425 0 .84.12 1.2.347l3.88 2.454c.573.362.92.991.92 1.668v4.333c0 .678-.347 1.309-.92 1.67l-3.88 2.454a2.25 2.25 0 0 1-2.4 0L8.42 16.98a1.98 1.98 0 0 1-.92-1.67v-4.333c0-.677.348-1.306.92-1.668l3.88-2.454a2.25 2.25 0 0 1 1.2-.347m0 1.5c-.14 0-.278.04-.398.115l-3.88 2.453a.48.48 0 0 0-.222.401v4.333c0 .163.084.315.222.402l3.88 2.453a.74.74 0 0 0 .796 0l3.88-2.453A.48.48 0 0 0 18 15.31v-4.333a.48.48 0 0 0-.222-.4l-3.88-2.454a.74.74 0 0 0-.398-.115m-3.717 2.99a.75.75 0 0 1 1.017-.304l2.698 1.46 2.7-1.46a.75.75 0 0 1 .713 1.32l-2.665 1.441v3.168a.75.75 0 0 1-1.5 0v-3.17l-2.661-1.44a.75.75 0 0 1-.302-1.016M16.25 1a3.25 3.25 0 0 1 3.25 3.25V7A.75.75 0 0 1 18 7V4.25a1.75 1.75 0 0 0-1.75-1.75H3.75A1.75 1.75 0 0 0 2 4.25v9.031c0 .967.784 1.75 1.75 1.75H5.5a.75.75 0 0 1 0 1.5H3.75a3.25 3.25 0 0 1-3.25-3.25V4.25A3.25 3.25 0 0 1 3.75 1zM4.375 3.75a1 1 0 1 1 0 2 1 1 0 0 1 0-2m3.125 0a1 1 0 1 1 0 2 1 1 0 0 1 0-2m3.125 0a1 1 0 1 1 0 2 1 1 0 0 1 0-2"/></svg>
